picto/car-ferry-left-framed.svg

<svg class="color-immutable" width="30" height="30" viewBox="0 0 30 30" fill="none" xmlns="http://www.w3.org/2000/svg"><path d="M30 0H0V30H30V0Z" fill="#2D327D"/><path d="M25.5 3C26.325 3 27 3.675 27 4.5V25.5C27 26.325 26.325 27 25.5 27H4.5C3.675 27 3 26.325 3 25.5V4.5C3 3.675 3.675 3 4.5 3H25.5ZM25.5 2.625H4.5C3.46613 2.625 2.625 3.46613 2.625 4.5V25.5C2.625 26.5339 3.46613 27.375 4.5 27.375H25.5C26.5339 27.375 27.375 26.5339 27.375 25.5V4.5C27.375 3.46613 26.5339 2.625 25.5 2.625Z" fill="white"/><path d="M18.6405 17.0158C18.7699 17.0158 18.8749 16.9108 18.8749 16.7815V15.1293C18.8749 14.9428 18.801 14.7639 18.6689 14.6321L17.2623 13.2255C17.1308 13.0938 16.9517 13.0195 16.7651 13.0195H12.7126C12.526 13.0195 12.3475 13.0937 12.2155 13.2255L10.582 14.8593L7.83966 15.0867C7.71816 15.0967 7.62463 15.1983 7.62463 15.3202V16.7815C7.62463 16.9108 7.72978 17.0158 7.85901 17.0158H8.11686V16.7463C8.11686 15.9698 8.74678 15.3399 9.52296 15.3399C10.2994 15.3399 10.9294 15.9698 10.9294 16.7463V17.0158H15.5935V16.7463C15.5935 15.9698 16.2235 15.3399 16.9996 15.3399C17.776 15.3399 18.406 15.9698 18.406 16.7463V17.0158H18.6405ZM14.4469 13.6996L14.4454 14.6605C14.4454 14.7898 14.3404 14.8946 14.2113 14.8946L11.4809 14.8944C11.4189 14.8944 11.3686 14.8442 11.3686 14.782C11.3686 14.7522 11.3805 14.7235 11.4016 14.7025L12.5706 13.5334H12.5704C12.6145 13.4895 12.6739 13.4649 12.7363 13.4649H14.2127C14.3419 13.4649 14.447 13.5698 14.447 13.6993V13.6996H14.4469ZM17.9971 14.8944L15.1261 14.8946C14.9967 14.8946 14.8918 14.7898 14.8918 14.6603V13.6994C14.8918 13.57 14.9967 13.465 15.1261 13.465H16.7418C16.8038 13.465 16.8635 13.4896 16.9075 13.5335L18.0766 14.7027C18.0976 14.7236 18.1095 14.7523 18.1095 14.7821C18.1095 14.8443 18.0591 14.8944 17.9971 14.8944Z" fill="white"/><path d="M8.27485 22.2878C8.70603 22.1922 9.14201 22.1191 9.58076 22.0687C9.94533 22.0202 10.3128 21.9958 10.6804 21.9958C11.5166 21.9958 12.3475 22.1212 13.1465 22.3674C13.6806 22.5317 14.2363 22.6155 14.7949 22.6155C14.8487 22.6155 14.9027 22.615 14.9562 22.6134C15.5688 22.594 16.1739 22.4739 16.7478 22.2584C17.6894 21.9047 18.687 21.7236 19.6929 21.7236C19.8918 21.7236 20.0908 21.7308 20.2893 21.7447C21.5571 21.8134 22.8079 22.0713 24 22.5101L23.9979 16.5H21.6057C21.3987 16.5 21.2308 16.3321 21.2308 16.1251C21.2308 16.1178 21.2311 16.1106 21.2313 16.1036L21.3138 14.6784C21.3252 14.48 21.4892 14.3249 21.6882 14.3249H23.9983V12.7501H21.8225C21.6153 12.7501 21.4473 12.5821 21.4473 12.3751C21.4473 12.3676 21.4475 12.3607 21.4478 12.3534L21.5281 10.9658C21.5395 10.7674 21.7035 10.6126 21.9023 10.6126H23.9982V9.74985H20.2107C20.045 9.74985 19.9106 9.88425 19.9106 10.0501V10.0852C19.9106 10.2986 20.0736 10.4769 20.2863 10.496L20.7467 10.5373L19.5417 17.3799C19.4786 17.7385 19.167 17.9998 18.8031 17.9998H7.37305L6.12873 14.9249L5.5675 15.1373L8.27485 22.2878Z" fill="white"/><path d="M23.9997 23.0709C22.8018 22.6085 21.5384 22.338 20.2563 22.2688C20.0688 22.2553 19.8808 22.2486 19.693 22.2486C18.7503 22.2486 17.8155 22.4183 16.933 22.7497C16.3053 22.9857 15.6431 23.1166 14.973 23.1378C14.914 23.1396 14.8549 23.1406 14.7957 23.1406C14.1847 23.1406 13.5768 23.0489 12.9929 22.8691C12.2442 22.6381 11.4653 22.5211 10.6817 22.5211C10.3355 22.5211 9.98952 22.5439 9.64655 22.5896C8.38625 22.734 7.15625 23.0737 6.00012 23.5961V24.55C7.17792 23.9679 8.44752 23.594 9.75267 23.4455C10.0606 23.4042 10.3709 23.3833 10.6817 23.3833C11.3793 23.3833 12.0724 23.4879 12.7387 23.6932C13.4053 23.8984 14.0988 24.0028 14.7957 24.0028C14.8637 24.0028 14.9311 24.0017 14.9988 23.9999C15.7641 23.9759 16.5197 23.8264 17.2361 23.5571H17.2364C18.0218 23.2621 18.8539 23.1109 19.693 23.1109C19.8627 23.1109 20.0325 23.1172 20.202 23.1295C21.5088 23.1991 22.7938 23.4938 24 24.0007L23.9997 23.0709Z" fill="white"/><path fill-rule="evenodd" clip-rule="evenodd" d="M9.52436 17.1923C9.25511 17.1923 9.03656 16.9736 9.03656 16.7047C9.03656 16.4354 9.25511 16.2169 9.52436 16.2169C9.79361 16.2169 10.0122 16.4355 10.0122 16.7047C10.0122 16.9736 9.79361 17.1923 9.52436 17.1923ZM9.52436 15.638C8.93576 15.638 8.45801 16.1158 8.45801 16.7047C8.45801 17.2933 8.93576 17.771 9.52436 17.771C10.113 17.771 10.5907 17.2933 10.5907 16.7047C10.5907 16.1158 10.113 15.638 9.52436 15.638Z" fill="white"/><path fill-rule="evenodd" clip-rule="evenodd" d="M17.0005 17.1923C16.731 17.1923 16.5127 16.9736 16.5127 16.7047C16.5127 16.4354 16.731 16.2169 17.0005 16.2169C17.2696 16.2169 17.488 16.4355 17.488 16.7047C17.488 16.9736 17.2695 17.1923 17.0005 17.1923ZM17.0006 15.638C16.4118 15.638 15.934 16.1158 15.934 16.7047C15.934 17.2933 16.4118 17.771 17.0006 17.771C17.5892 17.771 18.0667 17.2933 18.0667 16.7047C18.0667 16.1158 17.5892 15.638 17.0006 15.638Z" fill="white"/></svg>

<svg class="color-immutable" width="30" height="30" viewBox="0 0 30 30" fill="none" xmlns="http://www.w3.org/2000/svg"><g clip-path="url(#a)"><path d="M30 0H0v30h30V0Z" fill="#2D327D"/><path d="M25.5 3c.825 0 1.5.675 1.5 1.5v21c0 .825-.675 1.5-1.5 1.5h-21c-.825 0-1.5-.675-1.5-1.5v-21C3 3.675 3.675 3 4.5 3h21Zm0-.375h-21A1.877 1.877 0 0 0 2.625 4.5v21c0 1.034.841 1.875 1.875 1.875h21a1.877 1.877 0 0 0 1.875-1.875v-21A1.877 1.877 0 0 0 25.5 2.625Z" fill="#fff"/><path d="M18.64 17.016c.13 0 .235-.105.235-.234v-1.653a.702.702 0 0 0-.206-.497l-1.407-1.406a.703.703 0 0 0-.497-.207h-4.052a.703.703 0 0 0-.497.207l-1.634 1.633-2.742.228a.234.234 0 0 0-.215.233v1.462c0 .129.105.234.234.234h.258v-.27a1.407 1.407 0 0 1 2.812 0v.27h4.665v-.27a1.407 1.407 0 0 1 2.812 0v.27h.235ZM14.447 13.7l-.002.96c0 .13-.105.235-.234.235h-2.73a.112.112 0 0 1-.08-.192l1.17-1.17a.235.235 0 0 1 .165-.068h1.477c.129 0 .234.105.234.234Zm3.55 1.194h-2.87a.234.234 0 0 1-.235-.234v-.96c0-.13.105-.235.234-.235h1.616c.062 0 .121.025.165.069l1.17 1.169a.112.112 0 0 1-.08.191Z" fill="#fff"/><path d="M8.275 22.288c.431-.096.867-.169 1.306-.22a8.34 8.34 0 0 1 3.566.3 5.607 5.607 0 0 0 1.81.245 5.6 5.6 0 0 0 1.79-.355 8.375 8.375 0 0 1 3.542-.513c1.268.068 2.519.326 3.711.765l-.002-6.01h-2.392a.375.375 0 0 1-.375-.375v-.021l.083-1.426a.375.375 0 0 1 .374-.353h2.31V12.75h-2.175a.375.375 0 0 1-.375-.397l.08-1.387a.375.375 0 0 1 .374-.353h2.096V9.75h-3.787a.3.3 0 0 0-.3.3v.035c0 .214.163.392.375.411l.46.041-1.204 6.843a.75.75 0 0 1-.739.62H7.373l-1.244-3.075-.561.212 2.707 7.15Z" fill="#fff"/><path d="M24 23.07a12.225 12.225 0 0 0-3.744-.801 7.846 7.846 0 0 0-3.323.48 6.119 6.119 0 0 1-2.137.392 6.127 6.127 0 0 1-1.803-.272 7.838 7.838 0 0 0-3.346-.28c-1.26.145-2.49.485-3.647 1.007v.954a11.371 11.371 0 0 1 3.753-1.105 6.988 6.988 0 0 1 2.986.248 6.993 6.993 0 0 0 2.26.307 6.979 6.979 0 0 0 2.237-.443 6.986 6.986 0 0 1 2.966-.427c1.307.07 2.592.364 3.798.87v-.93Z" fill="#fff"/><path fill-rule="evenodd" clip-rule="evenodd" d="M9.524 17.192a.488.488 0 1 1 0-.976.488.488 0 0 1 0 .976Zm0-1.554a1.067 1.067 0 1 0 .001 2.134 1.067 1.067 0 0 0 0-2.134ZM17 17.192a.488.488 0 1 1 0-.975.488.488 0 0 1 0 .975Zm0-1.554a1.067 1.067 0 1 0 .001 2.134 1.067 1.067 0 0 0 0-2.134Z" fill="#fff"/></g><defs><clipPath id="a"><path fill="#fff" d="M0 0h30v30H0z"/></clipPath></defs></svg>
